devices/128/media-optical.svg

<?xml version="1.0" encoding="UTF-8" standalone="no"?>
<svg
   xmlns:dc="http://purl.org/dc/elements/1.1/"
   xmlns:cc="http://creativecommons.org/ns#"
   xmlns:rdf="http://www.w3.org/1999/02/22-rdf-syntax-ns#"
   xmlns:svg="http://www.w3.org/2000/svg"
   xmlns="http://www.w3.org/2000/svg"
   xmlns:xlink="http://www.w3.org/1999/xlink"
   version="1.1"
   width="128"
   height="128"
   id="svg4201">
  <defs
     id="defs4203">
    <linearGradient
       x1="18.775953"
       y1="4.0378027"
       x2="18.203465"
       y2="45.962208"
       id="linearGradient2651"
       xlink:href="#linearGradient6036"
       gradientUnits="userSpaceOnUse"
       gradientTransform="matrix(1.0859888,0,0,-1.0859883,37.559418,27.149721)" />
    <linearGradient
       id="linearGradient6036">
      <stop
         id="stop6038"
         style="stop-color:#ffffff;stop-opacity:1"
         offset="0" />
      <stop
         id="stop6040"
         style="stop-color:#ffffff;stop-opacity:0"
         offset="1" />
    </linearGradient>
    <linearGradient
       x1="71.204407"
       y1="6.2375584"
       x2="71.204407"
       y2="44.340794"
       id="linearGradient4064"
       xlink:href="#linearGradient4011"
       gradientUnits="userSpaceOnUse"
       gradientTransform="matrix(2.9459458,0,0,2.9459459,-147.32304,-74.701047)" />
    <linearGradient
       id="linearGradient4011">
      <stop
         id="stop4013"
         style="stop-color:#ffffff;stop-opacity:1"
         offset="0" />
      <stop
         id="stop4015"
         style="stop-color:#ffffff;stop-opacity:0.23529412"
         offset="0.507761" />
      <stop
         id="stop4017"
         style="stop-color:#ffffff;stop-opacity:0.15686275"
         offset="0.83456558" />
      <stop
         id="stop4019"
         style="stop-color:#ffffff;stop-opacity:0.39215687"
         offset="1" />
    </linearGradient>
    <linearGradient
       x1="20.580074"
       y1="10.774516"
       x2="24.27351"
       y2="9.8622112"
       id="linearGradient2682"
       xlink:href="#linearGradient3487"
       gradientUnits="userSpaceOnUse"
       spreadMethod="reflect" />
    <linearGradient
       id="linearGradient3487">
      <stop
         id="stop3489"
         style="stop-color:#e6cde2;stop-opacity:1"
         offset="0" />
      <stop
         id="stop3491"
         style="stop-color:#e6cde2;stop-opacity:0"
         offset="1" />
    </linearGradient>
    <linearGradient
       x1="17.494959"
       y1="11.200086"
       x2="21.047453"
       y2="9.7956104"
       id="linearGradient2684"
       xlink:href="#linearGradient3495"
       gradientUnits="userSpaceOnUse"
       spreadMethod="reflect" />
    <linearGradient
       id="linearGradient3495">
      <stop
         id="stop3497"
         style="stop-color:#c1cbe4;stop-opacity:1"
         offset="0" />
      <stop
         id="stop3499"
         style="stop-color:#c1cbe4;stop-opacity:0"
         offset="1" />
    </linearGradient>
    <linearGradient
       x1="14.084608"
       y1="13.045606"
       x2="16.994024"
       y2="10.732353"
       id="linearGradient2686"
       xlink:href="#linearGradient3503"
       gradientUnits="userSpaceOnUse"
       spreadMethod="reflect" />
    <linearGradient
       id="linearGradient3503">
      <stop
         id="stop3505"
         style="stop-color:#c4ebdd;stop-opacity:1"
         offset="0" />
      <stop
         id="stop3507"
         style="stop-color:#c4ebdd;stop-opacity:0"
         offset="1" />
    </linearGradient>
    <linearGradient
       x1="12.371647"
       y1="16.188046"
       x2="14.609327"
       y2="13.461712"
       id="linearGradient2688"
       xlink:href="#linearGradient3511"
       gradientUnits="userSpaceOnUse"
       spreadMethod="reflect" />
    <linearGradient
       id="linearGradient3511">
      <stop
         id="stop3513"
         style="stop-color:#ebeec7;stop-opacity:1"
         offset="0" />
      <stop
         id="stop3515"
         style="stop-color:#ebeec7;stop-opacity:0"
         offset="1" />
    </linearGradient>
    <linearGradient
       x1="10.609375"
       y1="17.886322"
       x2="9.7297754"
       y2="20.612656"
       id="linearGradient2690"
       xlink:href="#linearGradient3519"
       gradientUnits="userSpaceOnUse"
       spreadMethod="reflect" />
    <linearGradient
       id="linearGradient3519">
      <stop
         id="stop3521"
         style="stop-color:#fcd9cd;stop-opacity:1"
         offset="0" />
      <stop
         id="stop3523"
         style="stop-color:#fcd9cd;stop-opacity:0"
         offset="1" />
    </linearGradient>
    <linearGradient
       x1="20.580074"
       y1="10.774516"
       x2="24.27351"
       y2="9.8622112"
       id="linearGradient2672"
       xlink:href="#linearGradient3487"
       gradientUnits="userSpaceOnUse"
       spreadMethod="reflect" />
    <linearGradient
       x1="17.494959"
       y1="11.200086"
       x2="21.047453"
       y2="9.7956104"
       id="linearGradient2674"
       xlink:href="#linearGradient3495"
       gradientUnits="userSpaceOnUse"
       spreadMethod="reflect" />
    <linearGradient
       x1="14.084608"
       y1="13.045606"
       x2="16.994024"
       y2="10.732353"
       id="linearGradient2676"
       xlink:href="#linearGradient3503"
       gradientUnits="userSpaceOnUse"
       spreadMethod="reflect" />
    <linearGradient
       x1="12.371647"
       y1="16.188046"
       x2="14.609327"
       y2="13.461712"
       id="linearGradient2678"
       xlink:href="#linearGradient3511"
       gradientUnits="userSpaceOnUse"
       spreadMethod="reflect" />
    <linearGradient
       x1="10.609375"
       y1="17.886322"
       x2="9.7297754"
       y2="20.612656"
       id="linearGradient2680"
       xlink:href="#linearGradient3519"
       gradientUnits="userSpaceOnUse"
       spreadMethod="reflect" />
    <linearGradient
       x1="21.448364"
       y1="15.5"
       x2="21.448364"
       y2="32.509201"
       id="linearGradient2654"
       xlink:href="#linearGradient3428"
       gradientUnits="userSpaceOnUse"
       gradientTransform="matrix(2.5381093,0,0,2.5381093,3.0853666,-60.914613)" />
    <linearGradient
       id="linearGradient3428">
      <stop
         id="stop3430"
         style="stop-color:#aaaaaa;stop-opacity:1"
         offset="0" />
      <stop
         id="stop3432"
         style="stop-color:#d4d4d4;stop-opacity:1"
         offset="1" />
    </linearGradient>
    <linearGradient
       x1="12.2744"
       y1="32.4165"
       x2="35.391201"
       y2="14.2033"
       id="linearGradient2658"
       xlink:href="#linearGradient3263-6"
       gradientUnits="userSpaceOnUse"
       gradientTransform="matrix(0,3.1714559,-3.1714559,0,137.26064,-76.11495)" />
    <linearGradient
       x1="12.2744"
       y1="32.4165"
       x2="35.391201"
       y2="14.2033"
       id="linearGradient3263-6"
       gradientUnits="userSpaceOnUse">
      <stop
         id="stop3265-8"
         style="stop-color:#dedcde;stop-opacity:1"
         offset="0" />
      <stop
         id="stop3267-9"
         style="stop-color:#f0f0f0;stop-opacity:1"
         offset="0.5" />
      <stop
         id="stop3269-2"
         style="stop-color:#d2d2d2;stop-opacity:1"
         offset="1" />
    </linearGradient>
    <linearGradient
       x1="-21.915663"
       y1="3"
       x2="-21.915663"
       y2="45.032898"
       id="linearGradient2660"
       xlink:href="#linearGradient3772-6"
       gradientUnits="userSpaceOnUse"
       gradientTransform="matrix(2.7073165,0,0,2.7073165,135.10782,-64.975588)" />
    <linearGradient
       id="linearGradient3772-6">
      <stop
         id="stop3774-6"
         style="stop-color:#b4b4b4;stop-opacity:1"
         offset="0" />
      <stop
         id="stop3776-4"
         style="stop-color:#969696;stop-opacity:1"
         offset="1" />
    </linearGradient>
    <linearGradient
       id="linearGradient23419">
      <stop
         id="stop23421"
         style="stop-color:#000000;stop-opacity:1"
         offset="0" />
      <stop
         id="stop23423"
         style="stop-color:#000000;stop-opacity:0"
         offset="1" />
    </linearGradient>
    <radialGradient
       cx="23.334524"
       cy="41.63604"
       r="22.627417"
       fx="23.334524"
       fy="41.63604"
       id="radialGradient4199"
       xlink:href="#linearGradient23419"
       gradientUnits="userSpaceOnUse"
       gradientTransform="matrix(2.6516504,0,0,0.7954211,2.1249955,8.881818)" />
  </defs>
  <metadata
     id="metadata4206">
    <rdf:RDF>
      <cc:Work
         rdf:about="">
        <dc:format>image/svg+xml</dc:format>
        <dc:type
           rdf:resource="http://purl.org/dc/dcmitype/StillImage" />
        <dc:title />
      </cc:Work>
    </rdf:RDF>
  </metadata>
  <g
     transform="translate(0,64)"
     id="layer1">
    <path
       d="M 124,41.999991 C 124.003,51.94084 97.139272,60 64,60 30.860727,60 3.9969077,51.94084 3.999998,41.999991 3.9969077,32.05915 30.860727,24.000001 64,24.000001 c 33.139272,0 60.00309,8.059149 60,17.99999 z"
       id="path23417"
       style="opacity:0.3;fill:url(#radialGradient4199);fill-opacity:1;fill-rule:evenodd;stroke:none;stroke-width:2;marker:none;visibility:visible;display:inline;overflow:visible" />
    <path
       d="m 119.49998,9e-6 c 0,-30.763132 -24.736865,-55.499989 -55.499992,-55.499989 C 33.236854,-55.49998 8.5,-30.763121 8.5,9e-6 8.4999946,30.763139 33.236857,55.5 63.999988,55.5 94.763112,55.49999 119.49998,30.763141 119.49998,9e-6 z m -35.195118,0 c 0,11.176154 -8.905094,20.304874 -20.304874,20.304874 -11.623403,0 -20.304874,-9.354626 -20.304874,-20.304874 0,-11.173915 8.234215,-20.304874 20.304874,-20.304874 12.07066,0 20.304874,9.352343 20.304874,20.304874 z"
       id="path2781"
       style="fill:url(#linearGradient2658);fill-opacity:1;fill-rule:nonzero;stroke:url(#linearGradient2660);stroke-width:1;stroke-miterlimit:4;stroke-opacity:1" />
    <path
       d="m 63.999988,-20.999991 c -11.592,0 -21,9.408 -21,21 0,11.592001 9.408,21 21,21 11.592,0 21,-9.407999 21,-21 0,-11.592 -9.408,-21 -21,-21 z m 0,10.500001 c 5.796,0 10.5,4.703999 10.5,10.499999 0,5.796 -4.704,10.5 -10.5,10.5 -5.796,0 -10.5,-4.704 -10.5,-10.5 0,-5.796 4.704,-10.499999 10.5,-10.499999 z"
       id="path2474"
       style="opacity:0.5;fill:#ffffff;fill-opacity:1;fill-rule:nonzero;stroke:none;stroke-width:1;marker:none;visibility:visible;display:inline;overflow:visible;enable-background:accumulate" />
    <path
       d="m 63.999988,-20.304865 c -11.20829,0 -20.304874,9.096584 -20.304874,20.304874 0,11.20829 9.096584,20.304874 20.304874,20.304874 11.20829,0 20.304874,-9.096584 20.304874,-20.304874 0,-11.20829 -9.096584,-20.304874 -20.304874,-20.304874 z m 0,10.152436 c 5.604145,0 10.152437,4.548293 10.152437,10.152438 0,5.604145 -4.548292,10.152436 -10.152437,10.152436 -5.604145,0 -10.152437,-4.548291 -10.152437,-10.152436 0,-5.604145 4.548292,-10.152438 10.152437,-10.152438 z"
       id="path3418"
       style="fill:none;stroke:url(#linearGradient2654);stroke-width:1;stroke-linecap:butt;stroke-linejoin:round;stroke-miterlimit:4;stroke-opacity:1;stroke-dasharray:none;stroke-dashoffset:0;marker:none;visibility:visible;display:inline;overflow:visible;enable-background:accumulate" />
    <g
       transform="matrix(2.7320403,0,0,2.7320403,-1.0900842,-65.074256)"
       id="g3527">
      <path
         d="M 15.856928,5.7307748 20.625,16.34375 C 21.660403,15.885186 22.795334,15.625 24,15.625 c 0.03206,0 0.06178,-3.6e-4 0.09375,0 L 24.10801,4.0047512 c -2.94215,-0.070687 -5.543041,0.6572865 -8.251083,1.7260236 z"
         transform="matrix(0.9996011,0.02824295,-0.02824295,0.9996011,0.6924114,-0.6708346)"
         id="path3296"
         style="opacity:0.8;fill:url(#linearGradient2672);fill-opacity:1;fill-rule:nonzero;stroke:none" />
      <path
         d="m 12.121471,7.9060109 6.931026,9.3601041 c 0.913109,-0.669755 1.965938,-1.167064 3.142629,-1.425169 0.03132,-0.0069 0.06026,-0.01359 0.09157,-0.02009 L 19.857174,4.426276 c -2.888973,0.5613244 -5.31953,1.8556038 -7.735703,3.4797349 z"
         id="path3308"
         style="opacity:0.8;fill:url(#linearGradient2674);fill-opacity:1;fill-rule:nonzero;stroke:none" />
      <path
         d="m 8.2523933,11.646535 9.2137237,7.155818 c 0.70865,-0.883264 1.596891,-1.636119 2.666685,-2.18998 0.02847,-0.01474 0.05469,-0.02872 0.08325,-0.0431 L 14.86585,6.2506132 C 12.220599,7.5405321 10.165881,9.452393 8.2523933,11.646535 z"
         id="path3310"
         style="opacity:0.8;fill:url(#linearGradient2676);fill-opacity:1;fill-rule:nonzero;stroke:none" />
      <path
         d="m 5.6328855,16.073974 c 7.1748065,2.242248 7.8502625,7.031463 12.7767855,1.754127 L 10.499985,9.1321388 C 8.2787249,11.062747 6.9132871,13.459349 5.6328855,16.073974 z"
         id="path3312"
         style="opacity:0.8;fill:url(#linearGradient2678);fill-opacity:1;fill-rule:nonzero;stroke:none" />
      <path
         d="M 7.155289,13.193173 C 5.9722117,14.945185 5.2475768,16.829547 4.6301929,18.837116 L 15.96875,21.8125 C 16.184264,21.049497 16.486796,20.297733 16.9375,19.59375 16.95479,19.56675 16.98246,19.52673 17,19.5 L 7.155289,13.193173 z"
         id="path3314"
         style="opacity:0.8;fill:url(#linearGradient2680);fill-opacity:1;fill-rule:nonzero;stroke:none" />
    </g>
    <g
       transform="matrix(-2.7073165,0,0,-2.7073165,128.97558,64.95078)"
       id="g3297">
      <path
         d="M 15.856928,5.7307748 20.625,16.34375 C 21.660403,15.885186 22.795334,15.625 24,15.625 c 0.03206,0 0.06178,-3.6e-4 0.09375,0 L 24.10801,4.0047512 c -2.94215,-0.070687 -5.543041,0.6572865 -8.251083,1.7260236 z"
         transform="matrix(0.9996011,0.02824295,-0.02824295,0.9996011,0.6924114,-0.6708346)"
         id="path3299"
         style="opacity:0.8;fill:url(#linearGradient2682);fill-opacity:1;fill-rule:nonzero;stroke:none" />
      <path
         d="m 12.121471,7.9060109 6.931026,9.3601041 c 0.913109,-0.669755 1.965938,-1.167064 3.142629,-1.425169 0.03132,-0.0069 0.06026,-0.01359 0.09157,-0.02009 L 19.857174,4.426276 c -2.888973,0.5613244 -5.31953,1.8556038 -7.735703,3.4797349 z"
         id="path3301"
         style="opacity:0.8;fill:url(#linearGradient2684);fill-opacity:1;fill-rule:nonzero;stroke:none" />
      <path
         d="m 8.2523933,11.646535 9.2137237,7.155818 c 0.70865,-0.883264 1.596891,-1.636119 2.666685,-2.18998 0.02847,-0.01474 0.05469,-0.02872 0.08325,-0.0431 L 14.86585,6.2506132 C 12.220599,7.5405321 10.165881,9.452393 8.2523933,11.646535 z"
         id="path3303"
         style="opacity:0.8;fill:url(#linearGradient2686);fill-opacity:1;fill-rule:nonzero;stroke:none" />
      <path
         d="m 5.6328855,16.073974 c 7.1748065,2.242248 7.8502625,7.031463 12.7767855,1.754127 L 10.499985,9.1321388 C 8.2787249,11.062747 6.9132871,13.459349 5.6328855,16.073974 z"
         id="path3305"
         style="opacity:0.8;fill:url(#linearGradient2688);fill-opacity:1;fill-rule:nonzero;stroke:none" />
      <path
         d="M 7.155289,13.193173 C 5.9722117,14.945185 5.2475768,16.829547 4.6301929,18.837116 L 15.96875,21.8125 C 16.184264,21.049497 16.486796,20.297733 16.9375,19.59375 16.95479,19.56675 16.98246,19.52673 17,19.5 L 7.155289,13.193173 z"
         id="path3307"
         style="opacity:0.8;fill:url(#linearGradient2690);fill-opacity:1;fill-rule:nonzero;stroke:none" />
    </g>
    <path
       d="m 118.49999,-0.001923 c 0,30.100492 -24.402273,54.501933 -54.499313,54.501933 -30.099783,0 -54.500684,-24.401718 -54.500684,-54.501933 0,-30.099098 24.400901,-54.498065 54.500684,-54.498065 30.09704,0 54.499313,24.398967 54.499313,54.498065 l 0,0 z"
       id="path8655"
       style="opacity:0.55;color:#000000;fill:none;stroke:url(#linearGradient4064);stroke-width:1.00000012;stroke-linecap:round;stroke-linejoin:round;stroke-miterlimit:4;stroke-opacity:1;stroke-dasharray:none;stroke-dashoffset:0;marker:none;visibility:visible;display:inline;overflow:visible;enable-background:accumulate" />
    <path
       d="m 63.99999,21.500009 c -11.917147,0 -21.500003,-9.582855 -21.500003,-21.5 0,-11.917145 9.582856,-21.5 21.500003,-21.5 11.917144,0 21.499999,9.582855 21.499999,21.5 0,11.917145 -9.582855,21.5 -21.499999,21.5 l 0,0 0,0 z"
       id="path3281"
       style="opacity:0.4;fill:none;stroke:url(#linearGradient2651);stroke-width:1;stroke-miterlimit:4;stroke-opacity:1" />
  </g>
</svg>

<svg xmlns="http://www.w3.org/2000/svg" xmlns:xlink="http://www.w3.org/1999/xlink" viewBox="0 0 128 128"><defs><linearGradient x1="18.776" y1="4.038" x2="18.203" y2="45.962" id="A" xlink:href="#a" gradientUnits="userSpaceOnUse" gradientTransform="matrix(1.086 0 0 -1.086 37.56 27.15)"/><linearGradient id="a"><stop offset="0" stop-color="#fff"/><stop offset="1" stop-color="#fff" stop-opacity="0"/></linearGradient><linearGradient x1="71.204" y1="6.238" x2="71.204" y2="44.341" id="z" xlink:href="#b" gradientUnits="userSpaceOnUse" gradientTransform="translate(-147.323 -74.7) scale(2.94595)"/><linearGradient id="b"><stop offset="0" stop-color="#fff"/><stop offset=".508" stop-color="#fff" stop-opacity=".235"/><stop offset=".835" stop-color="#fff" stop-opacity=".157"/><stop offset="1" stop-color="#fff" stop-opacity=".392"/></linearGradient><linearGradient x1="20.58" y1="10.775" x2="24.274" y2="9.862" id="u" xlink:href="#c" gradientUnits="userSpaceOnUse" spreadMethod="reflect"/><linearGradient id="c"><stop offset="0" stop-color="#e6cde2"/><stop offset="1" stop-color="#e6cde2" stop-opacity="0"/></linearGradient><linearGradient x1="17.495" y1="11.2" x2="21.047" y2="9.796" id="v" xlink:href="#d" gradientUnits="userSpaceOnUse" spreadMethod="reflect"/><linearGradient id="d"><stop offset="0" stop-color="#c1cbe4"/><stop offset="1" stop-color="#c1cbe4" stop-opacity="0"/></linearGradient><linearGradient x1="14.085" y1="13.046" x2="16.994" y2="10.732" id="w" xlink:href="#e" gradientUnits="userSpaceOnUse" spreadMethod="reflect"/><linearGradient id="e"><stop offset="0" stop-color="#c4ebdd"/><stop offset="1" stop-color="#c4ebdd" stop-opacity="0"/></linearGradient><linearGradient x1="12.372" y1="16.188" x2="14.609" y2="13.462" id="x" xlink:href="#f" gradientUnits="userSpaceOnUse" spreadMethod="reflect"/><linearGradient id="f"><stop offset="0" stop-color="#ebeec7"/><stop offset="1" stop-color="#ebeec7" stop-opacity="0"/></linearGradient><linearGradient x1="10.609" y1="17.886" x2="9.73" y2="20.613" id="y" xlink:href="#g" gradientUnits="userSpaceOnUse" spreadMethod="reflect"/><linearGradient id="g"><stop offset="0" stop-color="#fcd9cd"/><stop offset="1" stop-color="#fcd9cd" stop-opacity="0"/></linearGradient><linearGradient x1="20.58" y1="10.775" x2="24.274" y2="9.862" id="p" xlink:href="#c" gradientUnits="userSpaceOnUse" spreadMethod="reflect"/><linearGradient x1="17.495" y1="11.2" x2="21.047" y2="9.796" id="q" xlink:href="#d" gradientUnits="userSpaceOnUse" spreadMethod="reflect"/><linearGradient x1="14.085" y1="13.046" x2="16.994" y2="10.732" id="r" xlink:href="#e" gradientUnits="userSpaceOnUse" spreadMethod="reflect"/><linearGradient x1="12.372" y1="16.188" x2="14.609" y2="13.462" id="s" xlink:href="#f" gradientUnits="userSpaceOnUse" spreadMethod="reflect"/><linearGradient x1="10.609" y1="17.886" x2="9.73" y2="20.613" id="t" xlink:href="#g" gradientUnits="userSpaceOnUse" spreadMethod="reflect"/><linearGradient x1="21.448" y1="15.5" x2="21.448" y2="32.509" id="o" xlink:href="#h" gradientUnits="userSpaceOnUse" gradientTransform="translate(3.085 -60.915) scale(2.538)"/><linearGradient id="h"><stop offset="0" stop-color="#aaa"/><stop offset="1" stop-color="#d4d4d4"/></linearGradient><linearGradient x1="12.274" y1="32.416" x2="35.391" y2="14.203" id="m" xlink:href="#i" gradientUnits="userSpaceOnUse" gradientTransform="rotate(90 106.688 30.572) scale(3.17146)"/><linearGradient x1="12.274" y1="32.416" x2="35.391" y2="14.203" id="i" gradientUnits="userSpaceOnUse"><stop offset="0" stop-color="#dedcde"/><stop offset=".5" stop-color="#f0f0f0"/><stop offset="1" stop-color="#d2d2d2"/></linearGradient><linearGradient x1="-21.916" y1="3" x2="-21.916" y2="45.033" id="n" xlink:href="#j" gradientUnits="userSpaceOnUse" gradientTransform="translate(135.108 -64.976) scale(2.70732)"/><linearGradient id="j"><stop offset="0" stop-color="#b4b4b4"/><stop offset="1" stop-color="#969696"/></linearGradient><linearGradient id="k"><stop offset="0"/><stop offset="1" stop-opacity="0"/></linearGradient><radialGradient cx="23.335" cy="41.636" r="22.627" fx="23.335" fy="41.636" id="l" xlink:href="#k" gradientUnits="userSpaceOnUse" gradientTransform="matrix(2.65165 0 0 .79542 2.125 8.882)"/></defs><path d="M124 42c.003 9.94-26.86 18-60 18S3.997 51.94 4 42c-.003-9.94 26.86-18 60-18s60.003 8.06 60 18z" opacity=".3" fill="url(#l)" fill-rule="evenodd" overflow="visible" transform="translate(0 64)"/><path d="M119.5 0c0-30.763-24.737-55.5-55.5-55.5S8.5-30.763 8.5 0 33.237 55.5 64 55.5 119.5 30.763 119.5 0zM84.305 0c0 11.176-8.905 20.305-20.305 20.305-11.623 0-20.305-9.355-20.305-20.305 0-11.174 8.234-20.305 20.305-20.305 12.07 0 20.305 9.352 20.305 20.305z" fill="url(#m)" stroke="url(#n)" transform="translate(0 64)"/><path d="M64 43c-11.592 0-21 9.408-21 21s9.408 21 21 21 21-9.408 21-21-9.408-21-21-21zm0 10.5c5.796 0 10.5 4.704 10.5 10.5S69.796 74.5 64 74.5 53.5 69.796 53.5 64 58.204 53.5 64 53.5z" opacity=".5" fill="#fff" overflow="visible"/><path d="M64-20.305c-11.208 0-20.305 9.097-20.305 20.305S52.792 20.305 64 20.305 84.305 11.208 84.305 0 75.208-20.305 64-20.305zm0 10.153c5.604 0 10.152 4.548 10.152 10.152 0 5.604-4.548 10.152-10.152 10.152-5.604 0-10.152-4.548-10.152-10.152 0-5.604 4.548-10.152 10.152-10.152z" fill="none" stroke="url(#o)" stroke-linejoin="round" overflow="visible" transform="translate(0 64)"/><path d="M15.857 5.73l4.768 10.614a8.293 8.293 0 0 1 3.375-.72h.094l.014-11.62c-2.942-.07-5.543.658-8.25 1.727z" transform="rotate(1.618 103.31 26.924) scale(2.73204)" opacity=".8" fill="url(#p)"/><path d="M12.12 7.906l6.932 9.36a8.293 8.293 0 0 1 3.143-1.425l.092-.02-2.43-11.392c-2.89.562-5.32 1.856-7.736 3.48z" opacity=".8" fill="url(#q)" transform="translate(-1.09 -1.074) scale(2.73204)"/><path d="M8.252 11.647l9.214 7.155a8.293 8.293 0 0 1 2.667-2.19l.083-.043-5.35-10.32c-2.645 1.29-4.7 3.2-6.614 5.395z" opacity=".8" fill="url(#r)" transform="translate(-1.09 -1.074) scale(2.73204)"/><path d="M5.633 16.074c7.175 2.242 7.85 7.03 12.777 1.754L10.5 9.132c-2.22 1.93-3.587 4.327-4.867 6.942z" opacity=".8" fill="url(#s)" transform="translate(-1.09 -1.074) scale(2.73204)"/><path d="M7.155 13.193c-1.183 1.752-1.907 3.637-2.525 5.644l11.34 2.976a8.19 8.19 0 0 1 .967-2.22L17 19.5l-9.845-6.307z" opacity=".8" fill="url(#t)" transform="translate(-1.09 -1.074) scale(2.73204)"/><path d="M15.857 5.73l4.768 10.614a8.293 8.293 0 0 1 3.375-.72h.094l.014-11.62c-2.942-.07-5.543.658-8.25 1.727z" transform="rotate(-178.382 64.475 64.488) scale(2.70732)" opacity=".8" fill="url(#u)"/><path d="M12.12 7.906l6.932 9.36a8.293 8.293 0 0 1 3.143-1.425l.092-.02-2.43-11.392c-2.89.562-5.32 1.856-7.736 3.48z" opacity=".8" fill="url(#v)" transform="rotate(180 64.488 64.475) scale(2.70732)"/><path d="M8.252 11.647l9.214 7.155a8.293 8.293 0 0 1 2.667-2.19l.083-.043-5.35-10.32c-2.645 1.29-4.7 3.2-6.614 5.395z" opacity=".8" fill="url(#w)" transform="rotate(180 64.488 64.475) scale(2.70732)"/><path d="M5.633 16.074c7.175 2.242 7.85 7.03 12.777 1.754L10.5 9.132c-2.22 1.93-3.587 4.327-4.867 6.942z" opacity=".8" fill="url(#x)" transform="rotate(180 64.488 64.475) scale(2.70732)"/><path d="M7.155 13.193c-1.183 1.752-1.907 3.637-2.525 5.644l11.34 2.976a8.19 8.19 0 0 1 .967-2.22L17 19.5l-9.845-6.307z" opacity=".8" fill="url(#y)" transform="rotate(180 64.488 64.475) scale(2.70732)"/><path d="M118.5-.002c0 30.1-24.402 54.502-54.5 54.502C33.9 54.5 9.5 30.098 9.5-.002S33.9-54.5 64-54.5c30.098 0 54.5 24.4 54.5 54.498z" opacity=".55" color="#000" fill="none" stroke="url(#z)" stroke-linecap="round" stroke-linejoin="round" overflow="visible" transform="translate(0 64)"/><path d="M64 21.5A21.445 21.445 0 0 1 42.5 0c0-11.917 9.583-21.5 21.5-21.5S85.5-11.917 85.5 0 75.917 21.5 64 21.5z" opacity=".4" fill="none" stroke="url(#A)" transform="translate(0 64)"/></svg>
